X:11
T:Booth Shot Lincoln
S:Bernie Waugh
R:Reel
M:4/4
L:1/8
K:D
|:B2|\
"D"AFFB AFAA|"G"Bd2Bd2de|"D"fdff (3efe d2|"Bm"B6 (3BcB|
"D"AFFB AFAA|"G"Bd2Bd2b2|"D"agff "A"gfef|"D"d6:|
DE|\
"D"FA2FA2AA|"G"Bd2Bd2 (3dcB|"D"AFDD FED2|"Bm"B,6DE|
"D"FA2FA2AA|"G"Bd2Bd2 (3dcB|"D"AFFB "A"AFEF|"D"D6DE|
"D"FA2FA2AA|"G"Bd2Bd2 (3dcB|"D"AFDD FED2|"Bm"B,6(3BcB|
"D"AFFB AFAA|"G"Bd2Bd2b2|"D"agff "A"gfef|"D"d6|]

